images/logo/orcid.svg

<?xml version="1.0" standalone="no"?><!DOCTYPE svg PUBLIC "-//W3C//DTD SVG 1.1//EN" "http://www.w3.org/Graphics/SVG/1.1/DTD/svg11.dtd"><svg t="1725436157786" class="icon" viewBox="0 0 1024 1024" version="1.1" xmlns="http://www.w3.org/2000/svg" p-id="40856" xmlns:xlink="http://www.w3.org/1999/xlink" width="200" height="200"><path d="M512 96c-229.376 0-416 186.624-416 416s186.624 416 416 416 416-186.624 416-416S741.376 96 512 96z m0 64A351.530667 351.530667 0 0 1 864 512 351.530667 351.530667 0 0 1 512 864 351.530667 351.530667 0 0 1 160 512 351.530667 351.530667 0 0 1 512 160zM352 256a32 32 0 1 0 0 64 32 32 0 0 0 0-64zM320 352v352H384V352H320z m128 0v352h144A176.512 176.512 0 0 0 768 528a176.512 176.512 0 0 0-176-176H448z m64 64h80a111.530667 111.530667 0 0 1 112 112A111.530667 111.530667 0 0 1 592 640H512V416z" fill="#2c2c2c" p-id="40857"></path></svg>

<?xml version="1.0" standalone="no"?><!DOCTYPE svg PUBLIC "-//W3C//DTD SVG 1.1//EN" "http://www.w3.org/Graphics/SVG/1.1/DTD/svg11.dtd"><svg t="1725434626173" class="icon" viewBox="0 0 1024 1024" version="1.1" xmlns="http://www.w3.org/2000/svg" p-id="26431" xmlns:xlink="http://www.w3.org/1999/xlink" width="200" height="200"><path d="M512 96C282.624 96 96 282.624 96 512s186.624 416 416 416 416-186.624 416-416S741.376 96 512 96z m0 64c194.784 0 352 157.216 352 352s-157.216 352-352 352S160 706.784 160 512 317.216 160 512 160z m-160 96a32 32 0 0 0 0 64 32 32 0 0 0 0-64z m-32 96v352h64V352h-64z m128 0v352h144c96.832 0 176-79.168 176-176S688.832 352 592 352H448z m64 64h80c62.208 0 112 49.792 112 112S654.208 640 592 640H512v-224z" p-id="26432" fill="#2c2c2c"></path></svg>
